assets/thumbs-down-fill.svg

<svg xmlns="http://www.w3.org/2000/svg" fill="none" viewBox="0 0 23 28">
  <path fill="#2A2238" d="M8.82743 25.3887c.11578 1.6671 1.69567 2.9549 3.39847 2.5292l.4649-.1158c.4264-.0996.8185-.3115 1.1355-.6137.3169-.3023.5472-.6838.667-1.1051.3919-1.4534.9494-4.4743.1104-8.033.2423.0356.5077.0659.7891.0908 1.27.1158 2.9727.1265 4.4814-.3758.9226-.3081 1.7705-1.2112 2.1374-2.2656.1837-.5105.2417-1.0576.1692-1.5953-.0726-.5376-.2736-1.0498-.586-1.4933.1033-.2101.1835-.431.2458-.6448.1371-.4809.2013-1.0117.2013-1.5246 0-.51656-.0642-1.04379-.2013-1.52648-.0699-.24849-.1654-.48905-.285-.71781.301-.68931.1906-1.46055-.0053-2.04655-.2008-.57802-.4943-1.11946-.8692-1.60305.0961-.27251.1353-.5575.1353-.82824-.0076-.57127-.1628-1.13086-.4506-1.62441C19.7709.849614 18.59 0 16.921 0h-6.234C9.60936 0 8.78112.142493 8.07578.386512c-.60655.222084-1.18612.511869-1.72772.863858l-.0855.05166c-.8977.5486-1.77938 1.08651-3.68344 1.28778C1.21475 2.73408 0 3.83662 0 5.3417v7.1246c0 1.5158 1.2201 2.5524 2.41704 2.8784 1.5122.4132 2.80354 1.4018 3.79743 2.5114.99745 1.115 1.62798 2.2799 1.85063 2.9176.35445 1.0241.63409 2.743.76233 4.615Z"/>
</svg>

<svg width="23" height="28" viewBox="0 0 23 28" fill="none" xmlns="http://www.w3.org/2000/svg">
<path d="M8.82743 25.3887C8.94321 27.0558 10.5231 28.3436 12.2259 27.9179L12.6908 27.8021C13.1172 27.7025 13.5093 27.4906 13.8263 27.1884C14.1432 26.8861 14.3735 26.5046 14.4933 26.0833C14.8852 24.6299 15.4427 21.609 14.6037 18.0503C14.846 18.0859 15.1114 18.1162 15.3928 18.1411C16.6628 18.2569 18.3655 18.2676 19.8742 17.7653C20.7968 17.4572 21.6447 16.5541 22.0116 15.4997C22.1953 14.9892 22.2533 14.4421 22.1808 13.9044C22.1082 13.3668 21.9072 12.8546 21.5948 12.4111C21.6981 12.201 21.7783 11.9801 21.8406 11.7663C21.9777 11.2854 22.0419 10.7546 22.0419 10.2417C22.0419 9.72514 21.9777 9.19791 21.8406 8.71522C21.7707 8.46673 21.6752 8.22617 21.5556 7.99741C21.8566 7.3081 21.7462 6.53686 21.5503 5.95086C21.3495 5.37284 21.056 4.8314 20.6811 4.34781C20.7772 4.0753 20.8164 3.79031 20.8164 3.51957C20.8088 2.9483 20.6536 2.38871 20.3658 1.89516C19.7709 0.849614 18.59 0 16.921 0H10.687C9.60936 0 8.78112 0.142493 8.07578 0.386512C7.46923 0.608596 6.88966 0.898381 6.34806 1.25037L6.26256 1.30203C5.36486 1.85063 4.48318 2.38854 2.57912 2.58981C1.21475 2.73408 0 3.83662 0 5.3417V12.4663C0 13.9821 1.2201 15.0187 2.41704 15.3447C3.92924 15.7579 5.22058 16.7465 6.21447 17.8561C7.21192 18.9711 7.84245 20.136 8.0651 20.7737C8.41955 21.7978 8.69919 23.5167 8.82743 25.3887Z" fill="#2A2238"/>
</svg>
